!!!!SEGMENT: pl-sa--549-a-ix-29--036_anonim--wariacje.krn
!!!cenid: 18xx:490
!!!COM: Anonim
!!!COM-rismid: pe30004985
!!!CDT:
!!!CNT:
!!!OTL: Wariacje
!!!PDT:
!!!AGN: Secular; Variations
!!!SMS-siglum: PL-SA
!!!SMS-shelfmark: 549/A IX 29
!!!SMS-shelfwork: 036 W
!!!SMS-variant:
!!!SMS-altvar:
!!!NIFC-rismid: 1001068928
!!!URL-scan: http://bc.bdsandomierz.pl/dlibra/publication/1441/edition/1409/content
!!!ONB-nifc: Str. 25 (s. 3) – str. 27
!!!AIN: 2 piano
!!!key: F
**kern	**kern
*group1	*group1
*part2	*part1
*staff2	*staff1
*I"[Piano]	*I"[Piano]
*Ipiano	*Ipiano
*ICklav	*ICklav
*clefF4	*clefG2
*k[b-]	*k[b-]
*F:	*F:
*M2/4	*M2/4
!	!LO:TX:a:Bi:t=Thema:rj
8r	8a\ 8cc\
=1	=1
8r	4a\ 4cc\
!!mixed beam:problem
!LO:TX:t=P:problem=mixed beam	!
8F\L	.
8FF/	8f/L 8a/
8F\J	8f/J 8a/
=2	=2
8r	4g/ 4b-/
!!mixed beam:problem
!LO:TX:t=P:problem=mixed beam	!
8C/L	.
8c\	8e/L 8g/
8C/J	8e/J 8g/
=3	=3
8F\L	4f/ 4a/
8D\	.
8BB-\	8f/L 8g/
8C\J	16e/L 16g/
.	16a/JJ
=4	=4
8F/L	4f/
8C/J	.
8FF/	8r
!LO:TX:b:t=P:problem=błędnie wpisana pauza ósemkowa	!
8r	8ryy
=5:|!|:	=5:|!|:
8r	8f/ 8a/
=6	=6
8r	4g/ 4b-/
!!mixed beam:problem
!LO:TX:t=P:problem=mixed beam	!
8C/L	.
8c\	8e/L 8g/
8C/J	8g/J 8b-/
=7	=7
*	*^
8r	4cc/	4a\
8FF/L	.	.
!!mixed beam:problem
!LO:TX:t=P:problem=mixed beam	!	!
8F/	8f\L 8a\	4ryyy
8FF/J	8a\J 8ff\	.
*	*v	*v
=8	=8
8r	4a\ 4ff\
!!mixed beam:problem
!LO:TX:t=P:problem=mixed beam	!
8F\L	.
8G\	8g/L 8ee/
8GG/J	8f/J 8dd/
=9	=9
!!LO:TX:t=P:problem:dysonans
8C/L 8E/	(<4f/ 4dd/
8GG/J	.
!	!LO:N:vis=4
8CC/	8e/) 8cc/
8r	8a/ 8cc/
=10	=10
8r	4a/ 4cc/
!!mixed beam:problem
!LO:TX:t=P:problem=mixed beam	!
8FF/L	.
8F\	8f/L 8a/
8FF/J	8f/J 8a/
=11	=11
*	*^
8r	4b-/	4g\
8C\L	.	.
!!mixed beam:problem
!LO:TX:t=P:problem=mixed beam	!	!
8c\	8e/L 8g/	4ryy
8C\J	8e/J 8g/	.
=12	=12	=12
8F\L	4f/ 4a/	4ryy
8D\J	.	.
!!LO:LB:g=original
8BB-\L	8g/L	4f\
8C\J	16e/L 16g/	.
.	16cc/JJ	.
*	*v	*v
=13	=13
8F\L	4f/
8C\J	.
8FF/	8ryy
=14:|!	=14:|!
*M2/4	*M2/4
!	!LO:TX:b:B:i:t=Var 1.
8r	16a/LL
.	16b-/JJ
*clefG2	*
=15	=15
*^	*
!LO:TX:b:t=P:problem=przed nutą skreślone ćwierćnuty a i c	!	!
16.a/LL	4c\	16.cc\LL
32g#X/K	.	32bn\K
16a/	.	16cc\
16a/JJ	.	16cc\JJ
8f/	8c\	16a\LL
.	.	16cc\
8ra	8rcyy	16ff\
.	.	16aa\JJ
=16	=16	=16
16.g/LL	4c\	16.b-X\LL
32f#X/K	.	32a\K
16g/	.	16b-\
16g/JJ	.	16b-\JJ
8g/	8e\	16g\LL
.	.	16b-\
8ra	8rcyy	16ee\
.	.	16gg\JJ
*v	*v	*
=17	=17
8f/L	16.a\LL
.	32g#X\K
8d/J	16a\
.	16ff\JJ
8B-/L	16gn\LL
.	16ff\
8c/J	16g\
.	16ee\JJ
=18	=18
8f/	4a\ 4ff\
*clefF4	*
8c\L	.
8F\J	8r
=19:|!|:	=19:|!|:
8r	16g/LL
.	16a/JJ
!!LO:LB:g=original
=20	=20
*^	*
*clefG2	*	*
16.g/LL	4c\	16.b-\LL
32f#X/K	.	32a\K
16g/	.	16b-\
16g/JJ	.	16b-\JJ
8e/	8c\	16g\LL
.	.	16b-\
8ra	8rcyy	16ee\
.	.	16gg\JJ
*v	*v	*
=21	=21
16.a/LL	16.cc\LL
32g#X/K	32bn\K
16a/	16cc\
16a/JJ	16cc\JJ
*^	*
8f/	8c\	16a\LL
.	.	16cc\
8ra	8rcyy	16ff\
.	.	16aa\JJ
=22	=22	=22
8.e/L	4c\	16.gg\LL
.	.	32ff#X\K
.	.	16gg\
16g/Jk	.	16cc\JJ
8f/L	4rc	16ee\LL
.	.	16dd\
8g/J	.	16cc\
.	.	16b-\JJ
*v	*v	*
=23	=23
4c/ 4f/ 4a/	8.dd\L
.	32ee\LL
.	32dd\JJJ
!LO:TX:b:t=P:problem=przed nutą skreślone gis i a	!
8e/	8cc\
!	!LO:TX:b:t=P:problem=nad nutami 5-6 litery a-h
!	!LO:TX:a:t=a
8r	16b-\LL
!	!LO:TX:a:t=h
.	16cc\JJ
=24	=24
*^	*
16.a/LL	4ryy	16.cc\LL
32g#X/K	.	32bn\K
16a/	.	16cc\
16a/JJ	.	16cc\JJ
8f/	8c\	16a\LL
.	.	16cc\
8ra	8rcyy	16ff\
.	.	16aa\JJ
=25	=25	=25
16.g/LL	4c\	16.b-X\LL
32f#X/K	.	32a\K
16g/	.	16b-\
16g/JJ	.	16b-\JJ
8e/	8c\	16g\LL
.	.	16b-\
8ra	8rcyy	16ee\
.	.	16gg\JJ
*v	*v	*
=26	=26
8f/L	16.a\LL
.	32g#X\K
8d/J	16a\
.	16ff\JJ
8B-/L	16gn\LL
.	16ff\
8c/J	16g\
.	16ee\JJ
=27	=27
8f/	4a\ 4ff\
*clefF4	*
8c\L	.
8F\J	8ryy
!!LO:LB:g=original
=28:|!;>	=28:|!;>
*M2/4	*M2/4
!	!LO:TX:a:Bi:t=Var 2.:rj
8r	16a\LL
.	16b-\JJ
=29	=29
*	*Xtuplet
4F\	24cc/LL
.	24a/
.	24f/JJ
.	24ff\LL
.	24cc\
.	24a\JJ
8r	24aa\LL
.	24gg\
.	24ff\JJ
8F\	24ee\LL
.	24dd\
.	24cc\JJ
=30	=30
4G\	24b-/LL
.	24g/
.	24e/JJ
.	24ee\LL
.	24b-\
.	24g\JJ
8r	24gg\LL
.	24ff\
.	24ee\JJ
8E\	24dd\LL
.	24cc\
.	24b-\JJ
=31	=31
!!mixed beam:problem
!LO:TX:t=P:problem=mixed beam	!
8F\L	24a\LL
.	24cc\
.	24ff\JJ
8BB-/J	24b-\LL
.	24dd\
.	24gg\JJ
8C/L	24a\LL
.	24cc\
.	24ff\JJ
8CC/J	24g\LL
.	24b-\
.	24ee\JJ
=32	=32
*	*^
*Xtuplet	*	*
24FF/LL	(>4ee/	4g\ 4b-\
24AA/	.	.
24C/JJ	.	.
24F/LL	.	.
24C/	.	.
24AA/JJ	.	.
4FF/	4ff/)	4a\
*	*v	*v
=33:|!|:	=33:|!|:
8r	16g/LL
.	16a/JJ
=34	=34
4C/	24b-/LL
.	24g/
.	24e/JJ
.	24ee\LL
.	24b-\
.	24g\JJ
8r	24gg\LL
.	24ff\
.	24ee\JJ
8C/	24dd\LL
.	24cc\
.	24b-\JJ
!!LO:PB:g=original
=35	=35
4F\	24a\LL
.	24cc\
.	24a\JJ
.	24ff\LL
.	24cc\
.	24a\JJ
8r	24aa\LL
.	24gg\
.	24ff\JJ
8F\	24ee\LL
.	24dd\
.	24cc\JJ
=36	=36
4G\ 4d\ 4f\	24bn\LL
.	(>24cc\
.	24cc#X\JJ
.	24dd\LL
.	24dd#X\
.	24ee\JJ
4G\ 4d\ 4f\	24ff\LL
.	24ff#X\
.	24gg\JJ
.	24ffn\LL
.	24dd#\)
.	24bn\JJ
=37	=37
(<4c\ 4f\	8.dd\L
.	32ee\LL
.	32dd\JJJ
8c\) 8e\	8cc\
8r	16a\LL
.	16b-X\JJ
=38	=38
*^	*
4A/	4F\	24cc/LL
.	.	24a/
.	.	24f/JJ
.	.	24ff\LL
.	.	24cc\
.	.	24a\JJ
8rD	4rEEyy	24aa\LL
.	.	24gg\
.	.	24ff\JJ
8F\	.	24ee\LL
.	.	24dd\
.	.	24cc\JJ
*v	*v	*
=39	=39
4G\	24b-/LL
.	24g/
.	24e/JJ
.	24ee\LL
.	24b-\
.	24g\JJ
8r	24gg\LL
.	24ff\
.	24ee\JJ
8E\	24dd\LL
.	24cc\
.	24b-\JJ
!!LO:LB:g=original
=40	=40
!!mixed beam:problem
!LO:TX:t=P:problem=mixed beam	!
8F\L	24a\LL
.	24cc\
.	24ff\JJ
8BB-/J	24b-\LL
.	24dd\
.	24gg\JJ
!!mixed beam:problem
!LO:TX:t=P:problem=mixed beam	!
8C\L	24a\LL
.	24cc\
.	24ff\JJ
8CC/J	24g\LL
.	24b-\
.	24ee\JJ
=41	=41
*	*^
24FF/LL	(4ee/	4g\ 4b-\
24AA/	.	.
24C/JJ	.	.
24F/LL	.	.
24C/	.	.
24AA/JJ	.	.
8FF/	8ff/)	8a\
*	*v	*v
=42:|!;>	=42:|!;>
*tuplet	*
*M2/4	*M2/4
*	*^
!LO:TUP:b:problem=klamra łukowa	!	!
!	!LO:TX:b:B:i:t=Var 3:rj	!
24FF/LL	8aa/	8cc\
24AA/	.	.
24C/JJ	.	.
!LO:TUP:b:problem=klamra łukowa	!	!
24FF/LL	8ra	4.ryy
24AA/	.	.
24C/JJ	.	.
8F\	8a\L 8ff\	.
8r	8a\J 8ff#X\	.
*	*v	*v
=43	=43
!LO:TUP:a:problem=klamra łukowa	!
24C\LL	4b-/ 4gg/
24E\	.
!LO:TX:a:t=g	!
24G\JJ	.
!LO:TUP:a:problem=klamra łukowa	!
24C\LL	.
24E\	.
!LO:TX:a:t=g	!
24G\JJ	.
4c\	8g/L 8ee/
.	8g/J 8ee/
=44	=44
*Xtuplet	*
24AA\LL	8a/L 8ff/
24C\	.
!LO:TX:a:t=f	!
24F\JJ	.
*rep	*
24AA\LL	8cc/J 8aa/
24C\	.
24F\JJ	.
*Xrep	*
24C\LL	8b-\L 8gg\
24E\	.
!LO:TX:a:t=g	!
24G\JJ	.
*rep	*
24C\LL	8g\J 8ee\
24E\	.
24G\JJ	.
*Xrep	*
!!LO:LB:g=original
=45	=45
*	*^
24FF/LL	(>4g/ 4b-/ 4ee/	4ryy
24AA/	.	.
24C/JJ	.	.
24F/LL	.	.
24C/	.	.
24AA/JJ	.	.
8FF/	8ff/	8a\)
*	*v	*v
=46:|!|:	=46:|!|:
8r	8a\ 8ff#X\
=47	=47
*	*^
24C\LL	4gg/	4b-\
24E\	.	.
24G\JJ	.	.
24C\LL	.	.
24E\	.	.
24G\JJ	.	.
*	*v	*v
8c\	8g\L 8ee\
8r	8bn\J 8gg#X\
=48	=48
*	*^
24C\LL	4cc\ 4aa\	4ryy
24F\	.	.
24A\JJ	.	.
24C\LL	.	.
24F\	.	.
24A\JJ	.	.
8c\	8ff/L	8a\L
8r	8aa/J	8ff\J
=49	=49	=49
24GG\LL	8gg/L	8ee\L
24C\	.	.
24E\JJ	.	.
*rep	*	*
24GG\LL	8ee/J	8cc\J
24C\	.	.
24E\JJ	.	.
*Xrep	*	*
24GG\LL	8ff/L	8dd\L
24BBn\	.	.
24D\JJ	.	.
*rep	*	*
24GG\LL	8dd/J	8g\J 8b-\
24BB\	.	.
24D\JJ	.	.
*Xrep	*	*
*	*v	*v
=50	=50
24C\LL	4f/ 4dd/
24E\	.
24G\JJ	.
24c\LL	.
24G\	.
24E\JJ	.
8C/	8e/ 8cc/
8r	8cc\ 8aa\
=51	=51
*	*^
24FF/LL	4aa/	4cc\
24AA/	.	.
24C/JJ	.	.
*rep	*	*
24FF/LL	.	.
24AA/	.	.
24C/JJ	.	.
*Xrep	*	*
8F\	8a\L 8ff\	4ryy
8r	8a\J 8ff#X\	.
*	*v	*v
=52	=52
24C\LL	4b-\ 4gg\
24E\	.
24G\JJ	.
*rep	*
24C\LL	.
24E\	.
24G\JJ	.
*Xrep	*
!	!LO:TX:b:t=P:problem=przed nutą skreślona ćwierćnuta f2-a1
8c\	8g\L 8ee\
8r	8g\J 8ee\
!!LO:LB:g=original
=53	=53
24AA\LL	8a\L 8ff\
24C\	.
24F\JJ	.
*rep	*
24AA\LL	8cc\J 8aa\
24C\	.
24F\JJ	.
*Xrep	*
24BB-\LL	8b-\L 8gg\
24D\	.
24G\JJ	.
*rep	*
24BB-\LL	8g\J 8ee\
24D\	.
24G\JJ	.
*Xrep	*
=54	=54
*	*^
24FF/LL	4ee/	(>4g\ 4b-\
24AA/	.	.
24C/JJ	.	.
24F/LL	.	.
24C/	.	.
24AA/JJ	.	.
8FF/	8ff/)	8a\
*	*v	*v
=55:|!;>	=55:|!;>
*M2/4	*M2/4
!	!LO:TX:b:B:i:t=Var 4.:rj
8r	8cc\
=56	=56
.	8qbn/
8F\L 8A\	16cc\LL
.	8qb/
.	16cc\JJ
8c\J	16r
.	16ff\
.	8qgg#X/
8F\L 8A\	16aa\LL
.	8qgg#/
.	16aa\JJ
8c\J	16r
.	16ccc\
=57	=57
.	8qbb-/
8E\L 8G\	16ccc\LL
.	8qbb-/
.	16ccc\JJ
8c\J	16r
.	16gg\
.	8qdd#X/
8E\L 8G\	16ee\LL
.	8qdd#/
.	16ee\JJ
8c\J	16r
.	16g/
=58	=58
!!mixed beam:problem
!LO:TX:t=P:problem=mixed beam	!
8F\L	16a\LL
.	16ff\JJ
8B-\	16r
.	16b-/ 16gg/
8c\	16r
.	16a/ 16ff/
8C/J	16r
.	16g/ 16ee/
!!LO:LB:g=original
=59	=59
*	*^
8F/L	(>4ee/	4g\ 4b-\
8C/	.	.
8FF/J	8a\) 8ff\	8ryy
*	*v	*v
=60:|!|:	=60:|!|:
8r	8cc\
=61	=61
*^	*
.	.	8qff#X/
8G/L	4E\	16gg\LL
.	.	8qff#/
.	.	16gg\JJ
8c/J	.	16r
.	.	16cc\
.	.	8qccc/
8G/L	4E\	16bb-\LL
.	.	8qccc/
.	.	16bb-\JJ
8c/J	.	16r
.	.	16cc'</
=62	=62	=62
.	.	8qaa/
8A/L	4F\	16gg\LL
.	.	8qaa/
.	.	16gg\JJ
8c/J	.	16r
.	.	16cc/
.	.	8qbbn/
8A/L	4F\	16ccc\LL
.	.	8qbb/
.	.	16ccc\JJ
8c/J	.	16r
.	.	16ccc\
*v	*v	*
=63	=63
.	8qaa#X/
8G\L 8d\	16bb-\LL
.	8qaa#/
.	16bb-\JJ
8f\J	16r
.	16gg\
.	8qccc#X/
8G\L 8d\	16ddd\LL
.	8qccc#/
.	16ddd\JJ
8f\J	16r
.	16bbn\
=64	=64
*^	*
8c\L 8e\	4ryy	16ccc\LL
.	.	16ccc\
8G\J 8f\	.	16ddd\
.	.	32ddd\L
.	.	32eee\JJJ
8e/	8c\ 8e\	8ccc\
*v	*v	*
8ryy	16r
.	16cc\
=65	=65
.	8qbn/
*^	*
8A/L	4F\	16cc\LL
.	.	8qb/
.	.	16cc\JJ
8c/J	.	16r
.	.	16ff\
.	.	8qgg#X/
8A/L	4F\	16aa\LL
.	.	8qgg#/
.	.	16aa\JJ
8c/J	.	16r
.	.	16cc\
!!LO:LB:g=original
=66	=66	=66
.	.	8qaa/
8G/L	4E\	16bb-\LL
.	.	8qaa/
.	.	16bb-\JJ
8c/J	.	16r
.	.	16gg\
.	.	8qdd#X/
8G/L	4E\	16ee\LL
.	.	8qdd#/
.	.	16ee\JJ
8c/J	.	16r
.	.	16b-/
*v	*v	*
=67	=67
!!mixed beam:problem
!LO:TX:t=P:problem=mixed beam	!
8F\L	16a\LL
.	16ff\JJ
8B-\	16r
.	16b-/ 16gg/
8c\	16r
.	16a\ 16ff\
8C/J	16r
.	16g/ 16ee/
=68	=68
*	*^
8F/L	4ee/	4g\ 4b-\
8C/	.	.
8FF/J	8a/ 8ff/	8ryy
*	*v	*v
=:|!;>	=:|!;>
*-	*-
!!!system-decoration: [{g1}]
!!!RDF**kern: > = above
!!!RDF**kern: < = below
!!!ENC: Mateusz Solarz
!!!END: 2020-06-18
!!!EED: Jędrzej Mróz
!!!EEV: 2022-01-05
